X:408
T:The St. Kilda wedding
R:Reel
O:Scotland
B:Fraser's "Airs and Melodies..." n7
S:Fraser's "Airs and Melodies..."
Z:Transcription, chords:Mike Long
M:C|
L:1/8
K:A
"A"A/A/AA2 A>(ce)c|"E"B/B/B (cA) "D"~F2(EF)|"A"A/A/AA2 A>(ce)c|"D"f/f/f (fe) ~fefa|\
"A"A/A/AA2 A>(ce)c|
"E"B/B/B (cA) "D"~F2(EF)|"A"A/A/AA2 A>(ce)c|"D"f/f/f ag ~fefg|]\
"A"~agab aeea|"D"fgag {g}~f2ed|
"A"cefg a>gfa|"A"eaca {c}"E"~B2AF|\
"A"Aaag aeea|"D"fgag {g}~f2ed|"A"cefg a>gfa|"A"ecac {c}"E"~B2AF|]
